X: 10480
T: Donnel's Fury
R: reel
M: 4/4
K: Dmajor
P:A
E2|F2 AF EAEC|DA,A,D G,DF,D|GFGB AFDF|GBAF E/E/E DE|
F2 AF EAEC|DA,A,D G,DF,D|GFEG FEDA,|B,DDC D3||
P:B
F,A,||B,2 B,C D2 CB,|^A,CF,A, B,CDF|EA, A,/A,/A, CDEA|1 FAEA DACA,||FECA, B,3||
P:C
e||fdcA cde|f/f/f fd Bdfd|e/e/e c^G A/A/A EG|1 AcA dfec||AdcA3||
P:D
c|B2 FB A2 CE|FB, B,/B,/B, ^A,CF,A,|B,^A,B,D CF,A,C|1 FF,EF, DB,CA||FECA, B,3||

